icon/io/terminal-sharp.svg

<svg xmlns="http://www.w3.org/2000/svg" width="512" height="512"><path d="M16 44v424a12 12 0 0 0 12 12h456a12 12 0 0 0 12-12V44a12 12 0 0 0-12-12H28a12 12 0 0 0-12 12Zm57.51 193.5 76.88-61.5-76.88-61.5 20-25 108.1 86.5L93.5 262.49ZM272 256h-96v-32h96Z"/></svg>

<svg xmlns="http://www.w3.org/2000/svg" viewBox="0 0 512 512" height="1em" width="1em">
  <path d="M16,44V468a12,12,0,0,0,12,12H484a12,12,0,0,0,12-12V44a12,12,0,0,0-12-12H28A12,12,0,0,0,16,44ZM73.51,237.5,150.39,176,73.51,114.5l20-25L201.61,176,93.5,262.49ZM272,256H176V224h96Z"/>
</svg>
